svg/light-string.svg

<?xml version="1.0" encoding="UTF-8"?>
<!DOCTYPE svg PUBLIC "-//W3C//DTD SVG 1.1//EN" "http://www.w3.org/Graphics/SVG/1.1/DTD/svg11.dtd">
<svg xmlns="http://www.w3.org/2000/svg" xmlns:xlink="http://www.w3.org/1999/xlink" version="1.1"  width="24" height="24" viewBox="0 0 24 24">
    <path fill="#000000" d="m 1.9999999,5.8465626 v 0.8 C 2.7578662,7.0304569 3.509178,7.4328657 4.2968753,7.7510937 L 3.7792968,9.6827347 6.0976561,10.303827 6.6054687,8.4073437 c 1.1775185,0.274942 2.545886,0.499024 4.1953123,0.570312 v 1.9746093 h 2.398438 V 8.9776557 c 1.649426,-0.07129 3.017794,-0.29537 4.195312,-0.570312 L 17.902344,10.303827 20.220703,9.6827347 19.703125,7.7510936 C 20.421108,7.475841 21.264842,7.0521575 22,6.6465626 v -0.7 c 0,0 -0.889349,0.4944689 -2.498047,1.109 -1.608698,0.614531 -4.07651,1.234 -7.501953,1.234 -3.4254429,0 -5.8932552,-0.619469 -7.5019532,-1.234 -1.608698,-0.6145311 -2.4980469,-1.209 -2.4980469,-1.209 z M 20.533203,10.440546 c -0.03561,-1.58e-4 -0.07108,0.0044 -0.105469,0.01367 l -2.318359,0.623047 c -0.212729,0.05704 -0.339326,0.275311 -0.283203,0.488283 l 0.234375,0.873047 c -0.56785,0.678076 -0.812802,1.609735 -0.566406,2.529297 0.399979,1.494136 1.935679,2.380924 3.429687,1.980468 1.494136,-0.399978 2.380925,-1.935679 1.980469,-3.429687 -0.246396,-0.91956 -0.923106,-1.604892 -1.753906,-1.908203 l -0.234375,-0.873047 c -0.04636,-0.173763 -0.20298,-0.295225 -0.382813,-0.296875 z m -17.0800781,0.002 c -0.1748985,0.0065 -0.3252388,0.126015 -0.3710938,0.294922 l -0.2324218,0.873047 c -0.83081,0.303306 -1.5075103,0.988641 -1.7539063,1.908203 -0.40045573,1.494008 0.4863327,3.029709 1.9804688,3.429687 1.4933753,0.399208 3.0277278,-0.487306 3.4277343,-1.980468 0.246395,-0.919561 0.00338,-1.851222 -0.5644531,-2.529297 L 6.173828,11.565546 C 6.22995,11.352575 6.1033525,11.134303 5.8906249,11.077265 L 3.5722655,10.454218 c -0.038901,-0.0099 -0.079064,-0.01381 -0.1191406,-0.01172 z m 7.3476561,1.3105 c -0.221219,-2.16e-4 -0.400606,0.179172 -0.40039,0.400391 v 0.904297 c -0.7240004,0.508 -1.2011723,1.342921 -1.2011723,2.294921 -4.321e-4,1.547008 1.2537733,2.801214 2.8007813,2.800782 1.547008,4.32e-4 2.801213,-1.253774 2.800781,-2.800782 0,-0.952 -0.477172,-1.786921 -1.201172,-2.294921 v -0.904297 c 2.16e-4,-0.221219 -0.179171,-0.400607 -0.40039,-0.400391 z" />
</svg>

<?xml version="1.0" encoding="UTF-8"?>
<!DOCTYPE svg PUBLIC "-//W3C//DTD SVG 1.1//EN" "http://www.w3.org/Graphics/SVG/1.1/DTD/svg11.dtd">
<svg xmlns="http://www.w3.org/2000/svg" xmlns:xlink="http://www.w3.org/1999/xlink" version="1.1"  width="24" height="24" viewBox="0 0 24 24">
<path d="m2 5.8466v0.8c0.75787 0.38389 1.5092 0.7863 2.2969 1.1045l-0.51758 1.9316 2.3184 0.62109 0.50781-1.8965c1.1775 0.27494 2.5459 0.49902 4.1953 0.57031v1.9746h2.3984v-1.9746c1.6494-0.07129 3.0178-0.29537 4.1953-0.57031l0.50781 1.8965 2.3184-0.62109-0.51758-1.9316c0.71798-0.27525 1.5617-0.69894 2.2969-1.1045v-0.7s-0.88935 0.49447-2.498 1.109c-1.6087 0.61453-4.0765 1.234-7.502 1.234-3.4254 0-5.8933-0.61947-7.502-1.234-1.6087-0.61453-2.498-1.209-2.498-1.209zm18.533 4.594c-0.03561-1.58e-4 -0.07108 0.0044-0.10547 0.01367l-2.3184 0.62305c-0.21273 0.05704-0.33933 0.27531-0.2832 0.48828l0.23438 0.87305c-0.56785 0.67808-0.8128 1.6097-0.56641 2.5293 0.39998 1.4941 1.9357 2.3809 3.4297 1.9805 1.4941-0.39998 2.3809-1.9357 1.9805-3.4297-0.2464-0.91956-0.92311-1.6049-1.7539-1.9082l-0.23438-0.87305c-0.04636-0.17376-0.20298-0.29522-0.38281-0.29688zm-17.08 2e-3c-0.1749 0.0065-0.32524 0.12602-0.37109 0.29492l-0.23242 0.87305c-0.83081 0.30331-1.5075 0.98864-1.7539 1.9082-0.40046 1.494 0.48633 3.0297 1.9805 3.4297 1.4934 0.39921 3.0277-0.48731 3.4277-1.9805 0.2464-0.91956 0.00338-1.8512-0.56445-2.5293l0.23438-0.87309c0.056122-0.21297-0.070476-0.43124-0.2832-0.48828l-2.3184-0.62305c-0.038901-0.0099-0.079064-0.01381-0.11914-0.01172zm7.3477 1.3105c-0.22122-2.16e-4 -0.40061 0.17917-0.40039 0.40039v0.9043c-0.724 0.508-1.2012 1.3429-1.2012 2.2949-4.321e-4 1.547 1.2538 2.8012 2.8008 2.8008 1.547 4.32e-4 2.8012-1.2538 2.8008-2.8008 0-0.952-0.47717-1.7869-1.2012-2.2949v-0.9043c2.16e-4 -0.22122-0.17917-0.40061-0.40039-0.40039z"/>
</svg>
